24x24/mimetypes/application-afdesigner.svg

<svg height="24" width="24" xmlns="http://www.w3.org/2000/svg"><rect height="20" opacity=".2" rx="1" width="20" x="2" y="2.5"/><rect fill="#4f4f4f" height="20" rx="1" width="20" x="2" y="2"/><path d="m3 2c-.554 0-1 .446-1 1v.5c0-.554.446-1 1-1h18c.554 0 1 .446 1 1v-.5c0-.554-.446-1-1-1z" fill="#f4f4f7" opacity=".1"/><path d="m10.355 5.5h2.362l.198.5h.677l5.908 10.253-1.272 2.247h-5.171l.524 1h-.229l-.524-1h-6.418l-.328-.5h-.407l-1.175-2.188 1.505-2.612 1.395-.803 2.307-3.994-.465-.804zm1.392 3.706-4.08 7.294h3.905l-.451-1.002 4.256.004z" opacity=".2"/><path d="m10.355 5h2.362l.198.5h.677l5.908 10.253-1.272 2.247h-5.171l.524 1h-.229l-.524-1h-6.418l-.328-.5h-.407l-1.175-2.188 1.505-2.612 1.395-.803 2.307-3.994-.465-.804zm1.392 3.706-4.08 7.294h3.905l-.451-1.002 4.256.004z" fill="#f4f4f7"/></svg>

<svg height="24" width="24" xmlns="http://www.w3.org/2000/svg">
    <rect height="20" opacity=".2" rx="1" width="20" x="2" y="2.5"/>
    <rect fill="#4f4f4f" height="20" rx="1" width="20" x="2" y="2"/>
    <path d="M3 2c-.554 0-1 .446-1 1v.5c0-.554.446-1 1-1h18c.554 0 1 .446 1 1V3c0-.554-.446-1-1-1z" fill="#f4f4f7" opacity=".1"/>
    <path d="M10.355 5.5h2.362l.198.5h.677L19.5 16.253 18.228 18.5h-5.171l.524 1h-.229l-.524-1H6.41l-.328-.5h-.407L4.5 15.812 6.005 13.2l1.395-.803 2.307-3.994-.465-.804zm1.392 3.706L7.667 16.5h3.905l-.451-1.002 4.256.004z" opacity=".2"/>
    <path d="M10.355 5h2.362l.198.5h.677L19.5 15.753 18.228 18h-5.171l.524 1h-.229l-.524-1H6.41l-.328-.5h-.407L4.5 15.312 6.005 12.7l1.395-.803 2.307-3.994-.465-.804zm1.392 3.706L7.667 16h3.905l-.451-1.002 4.256.004z" fill="#f4f4f7"/>
</svg>
